X: 21
T: Swallowtail, The
Z: The Mad Hatter
S: https://thesession.org/tunes/106#setting51851
R: jig
M: 6/8
L: 1/8
K: Amix
EF |: "Em" GEE BEE | GEE BAG | "D"FDD ADD | dcd AGF |
"Em" GEE BEE | GEG B2 c | "D"dcd AGF |1 "Em"GEE E2 F :|2 "Em"GEE E3||
|:"Em"Bcd e2 f | e2 f edA |"Em" Bcd e2 f | "D" edc d3 |
"Em"Bcd e2 f | e2 f edc | "D" dcd AGF | "Em" GEE E3 :|

